X: 270
T:There Is No Luck About The House. JaW.269
T:Nae Guid Luck Aboot The Hoose. JaW.269
M:2/4
L:1/8
Q:70
S:James Winder Ms, Lancashire, 1835-41
R:Country Dance
O:England
A:Wyresdale,Lancashire
H:1/8
Z:vmp.Chris Partington, Aug 2004
K:D
B|dB AF|G>GGB|dB AF|E2zB|!
dB AF|GGGB|A>GFE|D3B|!
dB AF|G>GGB|dAGF|E3B|!
dBAF|G>A Bd|A>GFE|D2DE|!
F2FD|G>FGF|F2FD|E2zA|!
FF F>D|G>GGB|AGFE|D3|]
